X: 092
M: 6/8
L: 1/8
K: Am
V: 1
e |\
~c2A ABA | ~a2A ABc | B2g g^fe | ded Bcd |\
c2A ABA | a2A agf | edc Bcd | c2A A2 :|
|: ^g |\
~a2A ABA | ~a2A ag^f | ~g2G GAG | B2G g2^g |\
(ag).e (gf).d | (fe).c (ed).B | (dc).A ea^g | a2A A2 :|
V: 2 clef=bass middle=d
z |\
[a3A3] [a3A3] | [c'3c3] [a3A3] | [g3G3] [g3G3] | [g3G3] [^g3^G3] |\
[a3A3] [a3A3] | [c3C3]  [d3D3] | [e3E3] [e3E3] | [A3A,3] [A2A,2] :|
|: z |\
[a3A3] [a3A3] | [c'3c3] [a3A3] | [b3B3] [g3G3] | [g3G3] B3 |\


